X:1
T:Watchword, 11.10.11.10 D
T:Watchword, 11.10.11.10 D
T:Frances Ridley Havergal (1836-1879)
T:Public Domain Courtesy of the Cyber Hymnal™
C:Frances Ridley Havergal (1836-1879)
Z:Public Domain
Z:Courtesy of the Cyber Hymnal™
%%score ( 1 2 ) ( 3 4 )
L:1/8
Q:1/4=120
M:4/4
K:F
V:1 treble 
V:2 treble 
V:3 bass 
V:4 bass 
V:1
 [CF]4 [EG]2 [FA]2 | [FB]4 [Fc]2 [Fd]2 | (c2 G2) [FA]2 [GB]2 | ([FA]2 [EG]2) F4 | %4
 [DF]4 [CE]2 [B,D]2 | C4 [CF]2 [FA]2 | [Cc]4 [DB]2 [DA]2 | [EG]8 | [CF]4 [EG]2 [FA]2 | %9
 [FB]4 [_Ec]2 [Dd]2 | (c2 f2) [Fe]2 [Fd]2 | (c2 A2) F4 | [DF]4 [CE]2 [B,D]2 | [A,C]4 F2 A2 | %14
 [Ec]4 [EG]2 [EA]2 | F8 | [Ac]4 [Ad]2 [Ae]2 | [Ff]4 ([Ge]2 [Gd]2) | (c2 G2) [FA]2 [FB]2 | %19
 (A2 G2) F4 | [Fd]4 [Fc]2 [EB]2 | [FA]4 [CG]2 [CF]2 | [DF]4 [DE]2 [DF]2 | [EG]8 | F4 [FA]2 [Ac]2 | %25
 [Ff]4 ([Ge]2 [Gd]2) | (c2 G2) [FA]2 [FB]2 | (A2 G2) F4 | [DF]4 [CE]2 [B,D]2 | [A,C]4 F2 A2 | %30
 [Ec]4 [EG]2 [EA]2 | F8 |] %32
V:2
 x8 | x8 | E4 x4 | x4 F4 | x8 | C4 x4 | x8 | x8 | x8 | x8 | F4 x4 | F4 F4 | x8 | x4 F2 A2 | x8 | %15
 F8 | x8 | x8 | E4 x4 | F4 F4 | x8 | x8 | x8 | x8 | F4 x4 | x8 | E4 x4 | F4 F4 | x8 | x4 F2 A2 | %30
 x8 | F8 |] %32
V:3
 [F,A,]4 [F,B,]2 [F,C]2 | [B,,D]4 [B,,A,]2 [B,,B,]2 | [C,G,]4 [C,C]2 [C,C]2 | (C2 B,2) [F,A,]4 | %4
 [B,,B,]4 [B,,F,]2 [B,,F,]2 | [A,,F,]4 [F,,A,]2 [F,,C]2 | [A,,F,]4 [B,,F,]2 [B,,F,]2 | [C,C]8 | %8
 [F,A,]4 [F,B,]2 [F,C]2 | [B,,D]4 [B,,C]2 [B,,B,]2 | [A,,C]4 [B,,B,]2 [B,,B,]2 | [A,,C]4 [F,A,]4 | %12
 [B,,B,]4 [B,,F,]2 [B,,F,]2 | [C,F,]4 F,2 A,2 | [C,G,]4 [C,B,]2 [C,C]2 | [F,,F,A,]8 | %16
 [F,C]4 [F,C]2 [F,C]2 | [F,D]4 ([F,B,]2 [F,B,]2) | [F,B,]4 [F,C]2 [F,D]2 | (C2 A,2) [F,A,]4 | %20
 B,4 [A,C]2 [G,C]2 | [F,C]4 [F,B,]2 [F,A,]2 | [D,A,]4 [D,A,]2 [D,A,]2 | [C,C]8 | %24
 [F,A,]4 [F,C]2 [F,F]2 | [F,D]4 ([F,B,]2 [F,B,]2) | [F,B,]4 [F,C]2 [F,D]2 | (C2 B,2) [F,A,]4 | %28
 [B,,B,]4 [B,,F,]2 [B,,F,]2 | [C,F,]4 F,2 A,2 | [C,G,]4 [C,B,]2 [C,C]2 | [F,A,]8 |] %32
V:4
 x8 | x8 | x8 | F,4 x4 | x8 | x8 | x8 | x8 | x8 | x8 | x8 | x8 | x8 | x4 F,2 A,2 | x8 | x8 | x8 | %17
 x8 | x8 | F,4 x4 | B,4 x4 | x8 | x8 | x8 | x8 | x8 | x8 | F,4 x4 | x8 | x4 F,2 A,2 | x8 | x8 |] %32

